X: 20501
T: the Berks of Abergelde
%R: march, reel
B: James Oswald "The Caledonian Pocket Companion" v.2 p.50 #1
Z: 2019 John Chambers <jc:trillian.mit.edu>
M: 2/4
L: 1/16
K: F
|: "_Brisk"\
F3GA2c2 | f4 Te2d2 | f4 Te2d2 | (efg2) (fga2) |\
F3GA2c2 | f3ga2g2 | f2d2Tc2A2 | G4 d4 ::\
F3GA2B2 | c2F2A2F2 | c2F2A2F2 | (dcBA) G2A2 |
F3GA2c2 | f3ga2g2 | f2d2f2A2 | G4 d4 ::\
F3GA2c2 | (fagf) (egfe) | (fagf) (egfe) | (fagf) g2a2 |\
F3GA2c2 | (fagf) (egfe) |
f2d2Tc2A2 | G4 d4 ::\
F3G A2f2 | c2F2 (ABcA) | c2F2 (ABcA) | (dcBA) G2A2 |\
F3GA2c2 | a3g fgag | f2d2f2A2 | G4 d4 :|
